src/topics/icons/segment.svg

<svg height="125" preserveAspectRatio="xMidYMid" viewBox="0 0 512 125" width="512" xmlns="http://www.w3.org/2000/svg"><g fill="#232520"><path d="m22.6525219 95.6783561c-2.4452497 0-5.0191968-.1269099-7.5931439-.3860921-5.66447108-.7721841-8.36711553-1.4138834-15.059378-4.1183153l1.54436826-5.0191969 1.54436826-6.4384427 1.02957884-5.4017139 2.31655239-.3860921c2.70085699 3.9878305 3.98961795 5.5357738 6.56177765 7.4662341 3.7322233 2.7008569 7.979236 4.1165279 12.4872184 4.1165279 9.1375122 0 15.4436826-5.1478943 15.4436826-12.7410382 0-3.2174339-1.2851861-6.4348678-3.4730412-8.6227228-2.4452497-2.4434623-5.2765915-4.2488001-12.9984328-8.3671155-10.0419687-5.0191968-13.3880999-7.076567-16.98983834-10.5549706-4.11831537-4.1183154-6.43486775-9.9096964-6.43486775-16.3445641-.00178747-16.9898384 13.64013219-28.5761752 33.84919189-28.5761752 2.0591576 0 4.1165279.13048482 6.0469882.38609206 5.4070763.51478942 8.3671155 1.41567091 15.3185602 4.12010283l-1.801763 4.88871201-1.9304603 6.4366552-1.0295789 3.9878306-2.0609451.1304848c-2.8313419-3.8627081-4.2470127-5.4070764-6.8191724-6.9496572-2.8313418-1.8017629-6.5635651-2.7044319-10.2975759-2.7044319-7.8505386 0-12.9984328 4.37571-12.9984328 11.0679726 0 3.3479187 1.5443682 6.563565 4.2470127 8.8819049 2.700857 2.1896425 5.791381 3.9914055 13.257615 7.7236288 10.1670911 5.0174094 13.3863125 7.0783545 16.8593535 11.1966699 3.7340108 4.2470127 5.6626837 9.5236042 5.6626837 15.5741673-.0017875 17.76381-15.3167727 30.6335455-36.6823212 30.6335455"/><path d="m98.582174 35.444419c-4.1165279 0-7.2070519 1.6748531-9.2662096 5.1461068-1.8017629 2.9618266-2.187855 5.0227718-2.5757346 11.5845493h5.9218659l8.4940263-.2591821c5.27659-.1286973 7.333961-1.7999755 7.333961-5.791381.001787-6.0487757-4.245226-10.680093-9.907909-10.680093zm26.901322 22.9099167-1.415671 1.6730656h-6.050563l-13.257615-.1286973-11.8419441.1286973-6.0469882.2573947c.3843046 15.059378 8.3671155 23.6838882 22.1359453 23.6838882 1.93046 0 3.734011-.1286973 5.535774-.5147893 3.088736-.5147895 4.761802-1.415671 8.234842-3.989618l1.801763 1.0295788-2.443462 6.0469882-1.93046 5.6644711c-2.059157.6434867-3.732223 1.1582762-4.890499 1.4156709-4.506195 1.0313663-9.782787 1.6748531-14.158496 1.6748531-19.6924837 0-32.6927041-13.2558276-32.6927041-33.4666747 0-20.0767874 12.7410383-33.9778893 31.1465474-33.9778893 15.8315627 0 26.1291377 9.9096964 26.1291377 25.0977718.001788 1.285186-.128697 3.0887365-.255607 5.4052889z"/><path d="m162.287365 35.5731163c-.386093 0-.643487.12691-.900882.12691-5.79138.5147894-8.494025 4.2488002-8.494025 11.8419441 0 9.3966943 3.473041 14.8001958 9.780999 14.8001958 6.050563 0 9.26621-4.1165279 9.26621-11.8419441-.001788-9.5236042-3.603526-14.9271058-9.652302-14.9271058zm14.287193 61.0079087c-3.21922-1.9304603-6.692262-2.3183398-17.633325-2.3183398-5.662683 0-7.078354.2573947-9.525391 1.6730656-3.732224 2.0609452-5.662684 4.8922872-5.662684 8.3689032 0 7.078354 6.82096 11.452277 17.633325 11.452277 11.325368 0 19.177693-4.888713 19.177693-12.097551 0-2.961827-1.415671-5.662684-3.989618-7.078355zm21.494246-61.522698-1.932248 3.9878305c-3.86092-.2556072-5.403501-.3860921-7.462658-.3860921-.386092 0-.900882 0-1.286974.1304849h-1.288761c2.189643 3.4748286 2.704432 5.1478942 2.704432 9.1375122 0 13.3827375-10.426274 21.4924583-27.929114 21.4924583-3.217434 0-4.37571-.1269099-7.464446-.7721842-2.573947 2.3165524-3.346131 3.6035259-3.346131 5.4035015 0 4.5079823 4.633105 6.177473 17.116748 6.177473h6.565353c14.671498 0 22.009034 5.9218658 22.009034 17.6333252 0 15.7046517-14.415891 26.2578357-36.040622 26.2578357-17.118535 0-28.701297-7.33575-28.701297-18.148115 0-3.217434 1.029579-5.920078 2.960039-8.1097207 1.801763-1.9304604 3.088737-2.8313419 7.594931-5.1461068l3.474829-1.8035505-2.573947-1.0295788c-4.506194-1.801763-7.207052-5.278379-7.207052-8.8801175 0-3.0923114 1.671279-5.791381 5.403501-8.8836924l6.438443-5.2748041c-7.594932-3.989618-11.069759-9.6523016-11.069759-17.5046278 0-12.8715229 10.424485-20.7238491 27.544808-20.7238491 5.791381 0 9.010603.5147895 13.51501 2.1896426l11.713247-.1286974c3.603525 0 5.662683-.1304848 10.553183-.6452743l.900881 1.1600638z"/><path d="m305.532883 92.7201045h-10.167091l-5.405289.2573946c.386092-2.5739471.772184-4.5061949.900882-5.7913809.386092-3.0923115.772184-11.4540646.772184-18.6646915v-11.582762c0-4.6348922-.257395-6.9514445-.900882-9.1375122-1.156488-3.862708-4.76359-6.3079578-9.266209-6.3079578-3.605313 0-7.080142 1.5461557-9.782787 4.2470127-3.088736 3.2174339-3.860921 5.6626837-3.860921 13.7724045v9.1392997c0 11.7114592.772185 18.7898138 2.57216 24.3255875l-5.662683-.2573946h-10.167091l-5.40529.2573946c.384305-2.5739471.643487-4.5061949.643487-5.7913809.386092-3.0923115.772184-11.4540646.900882-18.6646915l.128697-10.8087903v-.6452743c0-4.6331047-.257395-7.2052644-.900881-9.2662096-1.288761-3.862708-4.890499-6.3079578-9.267997-6.3079578-3.732224 0-7.078355 1.5461557-9.782786 4.2470127-3.090524 3.2174339-3.860921 5.7931684-3.860921 13.7724045v9.1392997c0 11.7114592.770397 18.7898138 2.57216 24.3255875l-5.662684-.2573946h-10.165304l-5.407076.2573946c.38788-2.5739471.645274-4.5061949.773972-5.7913809.386092-3.0923115.772184-11.8419442.772184-18.6646915l.257395-14.4123162c0-6.3061705-.38788-10.8123653-1.029579-13.384525-.643487-2.7026445-2.573947-3.9914055-5.662684-3.9914055h-1.029579l2.57216-5.7895935 5.149682-.2591821 10.295788-.2556073 6.179261-.386092-.259183 10.9392751 5.147894-4.3739226c6.177473-5.1478942 11.325368-7.4662341 17.76381-7.4662341 8.881905 0 14.801984 3.9914055 17.633325 12.1011263l5.405289-4.6331047c6.046989-5.1478943 11.32358-7.4662341 17.633325-7.4662341 6.692263 0 12.097552 2.4452498 15.443683 6.9514447 2.706219 3.8609206 3.476616 7.2070518 3.346131 16.4750489l-.125122 16.0871693c-.128698 11.7114594.772184 18.7898139 2.572159 24.3255877z"/><path d="m352.88636 35.444419c-4.120103 0-7.207052 1.6748531-9.269785 5.1461068-1.801762 2.9618266-2.186067 5.0227718-2.572159 11.5845493h5.918291l8.495813-.2591821c5.276592-.1286973 7.337536-1.7999755 7.337536-5.791381 0-6.0487757-4.247012-10.680093-9.909696-10.680093zm26.899534 22.9099167-1.41567 1.6730656h-6.048776l-13.257614-.1286973-11.840158.1286973-6.050562.2591821c.386092 15.0593781 8.367115 23.6838883 22.137731 23.6838883 1.930461 0 3.734011-.1286973 5.535775-.5147894 3.090524-.5147894 4.761802-1.4156709 8.236631-3.9914054l1.801762 1.0313663-2.445249 6.0487757-1.930461 5.6626836c-2.059157.6434867-3.732223 1.1582762-4.890499 1.4156709-4.504408 1.0313663-9.780999 1.6748531-14.158497 1.6748531-19.692482 0-32.690915-13.2558276-32.690915-33.4666747 0-20.0767875 12.742825-33.9778893 31.148335-33.9778893 15.827987 0 26.12735 9.9114839 26.12735 25.0977717-.001788 1.2833986-.130485 3.0869491-.259183 5.4035015z"/><path d="m450.69635 92.7201045h-10.167091l-5.405289.2573946c.384304-2.5739471.772184-4.5061949.900881-5.7913809.259182-2.0609452.386092-5.1478943.514789-9.2697846.128698-4.1165279.259183-7.2052643.259183-9.3966944v-10.8087903c0-5.2801665-.259183-7.7254162-1.029579-9.9114838-1.28876-3.8609206-5.147894-6.3079579-9.911484-6.3079579-3.732223 0-7.335749 1.5461557-10.038393 4.2470128-3.217434 3.2174338-3.991406 5.7931684-3.991406 13.7724044v9.1392997c0 11.5809745.77576 18.7898138 2.575735 24.3238001l-5.662684-.2556072h-10.168879l-5.403501.2556072c.51479-2.5721597.772185-4.5044075.900882-5.7895935.386092-3.0923115.772184-11.8419442.772184-18.6646915l.259182-14.4123162c0-6.3061705-.514789-10.8123653-1.158276-13.384525-.641699-2.7026444-2.447037-3.9914054-5.533986-3.9914054h-1.029579l2.573947-5.7895935 5.147894-.2591822 10.297576-.2556072 6.048776-.3878796-.257395 10.8123653 5.276591-4.2470128c6.563565-5.2783789 11.452278-7.466234 18.146327-7.466234 6.951445 0 12.356734 2.4452497 15.831563 6.9514447 2.831341 3.8609206 3.603525 7.3339617 3.47304 16.4750489l-.12691 16.0871694c-.128697 11.7114592.772185 18.7898138 2.57216 24.3255875z"/><path d="m509.763074 35.9592084-1.671278 4.7635896c-5.022772-.3860921-6.82096-.5147893-10.812366-.5147893h-5.147895l-.387878 11.8419441v14.5410136c0 6.5653525.128697 8.4958129.77397 11.0715475 1.029579 4.2470126 4.247013 6.6922624 8.620936 6.6922624 2.83313 0 5.022772-.6452742 8.238419-2.3165524l1.544367.9008815-1.286972 4.1183154-1.288761 5.4052889c-7.464447 2.0573702-11.198458 2.7026444-15.314987 2.7026444-12.869735 0-18.407296-6.4366552-18.407296-21.4942457v-5.9182909l.130485-12.4854309c.126909-6.8191723-.387879-11.3271547-1.031366-13.8993143-.641699-2.704432-2.443462-3.989618-5.533986-3.989618h-2.187856l2.57216-6.4366552 6.69405-.1286974c0-4.1183153-.130485-5.278379-.51479-11.0715475l4.8905-1.6712781 7.979236-3.6053134 4.375711-2.4434623 1.41567 1.4156709c-.900881 6.0487757-1.029578 7.7200538-1.288761 17.5046278l8.881905.1269099h.773972c4.247013 0 5.276591-.1269099 9.008815-.9008816l.90088 1.2869737z"/></g></svg>

<?xml version="1.0" encoding="UTF-8" standalone="no"?>
<svg width="512px" height="125px" viewBox="0 0 512 125" version="1.1" xmlns="http://www.w3.org/2000/svg" xmlns:xlink="http://www.w3.org/1999/xlink" preserveAspectRatio="xMidYMid">
	<g fill="#232520">
		<path d="M22.6525219,95.6783561 C20.2072722,95.6783561 17.6333251,95.5514462 15.059378,95.292264 C9.39490692,94.5200799 6.69226247,93.8783806 0,91.1739487 L1.54436826,86.1547518 L3.08873652,79.7163091 L4.11831536,74.3145952 L6.43486775,73.9285031 C9.13572474,77.9163336 10.4244857,79.4642769 12.9966454,81.3947372 C16.7288687,84.0955941 20.9758814,85.5112651 25.4838638,85.5112651 C34.621376,85.5112651 40.9275464,80.3633708 40.9275464,72.7702269 C40.9275464,69.552793 39.6423603,66.3353591 37.4545052,64.1475041 C35.0092555,61.7040418 32.1779137,59.898704 24.4560724,55.7803886 C14.4141037,50.7611918 11.0679725,48.7038216 7.46623406,45.225418 C3.34791869,41.1071026 1.03136631,35.3157216 1.03136631,28.8808539 C1.02957884,11.8910155 14.6714985,0.304678696 34.8805582,0.304678696 C36.9397158,0.304678696 38.9970861,0.435163519 40.9275464,0.690770762 C46.3346227,1.20556018 49.2946619,2.10644167 56.2461066,4.81087359 L54.4443436,9.6995856 L52.5138833,16.1362408 L51.4843044,20.1240714 L49.4233593,20.2545562 C46.5920174,16.3918481 45.1763466,14.8474798 42.6041869,13.304899 C39.7728451,11.5031361 36.0406218,10.6004671 32.306611,10.6004671 C24.4560724,10.6004671 19.3081782,14.9761771 19.3081782,21.6684397 C19.3081782,25.0163584 20.8525464,28.2320047 23.5551909,30.5503446 C26.2560479,32.7399871 29.3465719,34.5417501 36.8128059,38.2739734 C46.979897,43.2913828 50.1991184,45.3523279 53.6721594,49.4706433 C57.4061702,53.717656 59.3348431,58.9942475 59.3348431,65.0448106 C59.3330556,82.8086206 44.0180704,95.6783561 22.6525219,95.6783561"></path>
		<path d="M98.582174,35.444419 C94.4656461,35.444419 91.3751221,37.1192721 89.3159644,40.5905258 C87.5142015,43.5523524 87.1281094,45.6132976 86.7402298,52.1750751 L92.6620957,52.1750751 L101.156122,51.915893 C106.432712,51.7871957 108.490083,50.1159175 108.490083,46.124512 C108.49187,40.0757363 104.244857,35.444419 98.582174,35.444419 L98.582174,35.444419 L98.582174,35.444419 Z M125.483496,58.3543357 L124.067825,60.0274013 L118.017262,60.0274013 L104.759647,59.898704 L92.9177029,60.0274013 L86.8707147,60.284796 C87.2550193,75.344174 95.2378302,83.9686842 109.00666,83.9686842 C110.93712,83.9686842 112.740671,83.8399869 114.542434,83.4538949 C117.63117,82.9391054 119.304236,82.0382239 122.777276,79.4642769 L124.579039,80.4938557 L122.135577,86.5408439 L120.205117,92.205315 C118.14596,92.8488017 116.472894,93.3635912 115.314618,93.6209859 C110.808423,94.6523522 105.531831,95.295839 101.156122,95.295839 C81.4636383,95.295839 68.4634179,82.0400114 68.4634179,61.8291643 C68.4634179,41.7523769 81.2044562,27.851275 99.6099653,27.851275 C115.441528,27.851275 125.739103,37.7609714 125.739103,52.9490468 C125.740891,54.2342328 125.610406,56.0377833 125.483496,58.3543357 L125.483496,58.3543357 L125.483496,58.3543357 Z"></path>
		<path d="M162.287365,35.5731163 C161.901272,35.5731163 161.643878,35.7000263 161.386483,35.7000263 C155.595103,36.2148157 152.892458,39.9488265 152.892458,47.5419704 C152.892458,56.9386647 156.365499,62.3421662 162.673457,62.3421662 C168.72402,62.3421662 171.939667,58.2256383 171.939667,50.5002221 C171.937879,40.9766179 168.336141,35.5731163 162.287365,35.5731163 L162.287365,35.5731163 L162.287365,35.5731163 Z M176.574558,96.581025 C173.355338,94.6505647 169.882296,94.2626852 158.941233,94.2626852 C153.27855,94.2626852 151.862879,94.5200799 149.415842,95.9357508 C145.683618,97.996696 143.753158,100.828038 143.753158,104.304654 C143.753158,111.383008 150.574118,115.756931 161.386483,115.756931 C172.711851,115.756931 180.564176,110.868218 180.564176,103.65938 C180.564176,100.697553 179.148505,97.996696 176.574558,96.581025 L176.574558,96.581025 L176.574558,96.581025 Z M198.068804,35.058327 L196.136556,39.0461575 C192.275636,38.7905503 190.733055,38.6600654 188.673898,38.6600654 C188.287806,38.6600654 187.773016,38.6600654 187.386924,38.7905503 L186.098163,38.7905503 C188.287806,42.2653789 188.802595,43.9384445 188.802595,47.9280625 C188.802595,61.3108 178.376321,69.4205208 160.873481,69.4205208 C157.656047,69.4205208 156.497771,69.2936109 153.409035,68.6483366 C150.835088,70.964889 150.062904,72.2518625 150.062904,74.0518381 C150.062904,78.5598204 154.696009,80.2293111 167.179652,80.2293111 L173.745005,80.2293111 C188.416503,80.2293111 195.754039,86.1511769 195.754039,97.8626363 C195.754039,113.567288 181.338148,124.120472 159.713417,124.120472 C142.594882,124.120472 131.01212,116.784722 131.01212,105.972357 C131.01212,102.754923 132.041699,100.052279 133.972159,97.8626363 C135.773922,95.9321759 137.060896,95.0312944 141.56709,92.7165295 L145.041919,90.912979 L142.467972,89.8834002 C137.961778,88.0816372 135.26092,84.6050212 135.26092,81.0032827 C135.26092,77.9109713 136.932199,75.2119017 140.664421,72.1195903 L147.102864,66.8447862 C139.507932,62.8551682 136.033105,57.1924846 136.033105,49.3401584 C136.033105,36.4686355 146.45759,28.6163093 163.577913,28.6163093 C169.369294,28.6163093 172.588516,29.1310988 177.092923,30.8059519 L188.80617,30.6772545 C192.409695,30.6772545 194.468853,30.5467697 199.359353,30.0319802 L200.260234,31.192044 L198.068804,35.058327 L198.068804,35.058327 Z"></path>
		<path d="M305.532883,92.7201045 L295.365792,92.7201045 L289.960503,92.9774991 C290.346595,90.403552 290.732687,88.4713042 290.861385,87.1861182 C291.247477,84.0938067 291.633569,75.7320536 291.633569,68.5214267 L291.633569,56.9386647 C291.633569,52.3037725 291.376174,49.9872202 290.732687,47.8011525 C289.576199,43.9384445 285.969097,41.4931947 281.466478,41.4931947 C277.861165,41.4931947 274.386336,43.0393504 271.683691,45.7402074 C268.594955,48.9576413 267.82277,51.4028911 267.82277,59.5126119 L267.82277,68.6519116 C267.82277,80.3633708 268.594955,87.4417254 270.39493,92.9774991 L264.732247,92.7201045 L254.565156,92.7201045 L249.159866,92.9774991 C249.544171,90.403552 249.803353,88.4713042 249.803353,87.1861182 C250.189445,84.0938067 250.575537,75.7320536 250.704235,68.5214267 L250.832932,57.7126364 L250.832932,57.0673621 C250.832932,52.4342574 250.575537,49.8620977 249.932051,47.8011525 C248.64329,43.9384445 245.041552,41.4931947 240.664054,41.4931947 C236.93183,41.4931947 233.585699,43.0393504 230.881268,45.7402074 C227.790744,48.9576413 227.020347,51.5333758 227.020347,59.5126119 L227.020347,68.6519116 C227.020347,80.3633708 227.790744,87.4417254 229.592507,92.9774991 L223.929823,92.7201045 L213.764519,92.7201045 L208.357443,92.9774991 C208.745323,90.403552 209.002717,88.4713042 209.131415,87.1861182 C209.517507,84.0938067 209.903599,75.344174 209.903599,68.5214267 L210.160994,54.1091105 C210.160994,47.80294 209.773114,43.2967452 209.131415,40.7245855 C208.487928,38.021941 206.557468,36.73318 203.468731,36.73318 L202.439152,36.73318 L205.011312,30.9435865 L210.160994,30.6844044 L220.456782,30.4287971 L226.636043,30.0427051 L226.37686,40.9819802 L231.524754,36.6080576 C237.702227,31.4601634 242.850122,29.1418235 249.288564,29.1418235 C258.170469,29.1418235 264.090548,33.133229 266.921889,41.2429498 L272.327178,36.6098451 C278.374167,31.4619508 283.650758,29.143611 289.960503,29.143611 C296.652766,29.143611 302.058055,31.5888608 305.404186,36.0950557 C308.110405,39.9559763 308.880802,43.3021075 308.750317,52.5701046 L308.625195,68.6572739 C308.496497,80.3687333 309.397379,87.4470878 311.197354,92.9828616 L305.532883,92.7201045"></path>
		<path d="M352.88636,35.444419 C348.766257,35.444419 345.679308,37.1192721 343.616575,40.5905258 C341.814813,43.5523524 341.430508,45.6132976 341.044416,52.1750751 L346.962707,52.1750751 L355.45852,51.915893 C360.735112,51.7871957 362.796056,50.1159175 362.796056,46.124512 C362.796056,40.0757363 358.549044,35.444419 352.88636,35.444419 L352.88636,35.444419 L352.88636,35.444419 Z M379.785894,58.3543357 L378.370224,60.0274013 L372.321448,60.0274013 L359.063834,59.898704 L347.223676,60.0274013 L341.173114,60.2865834 C341.559206,75.3459615 349.540229,83.9704717 363.310845,83.9704717 C365.241306,83.9704717 367.044856,83.8417744 368.84662,83.4556823 C371.937144,82.9408929 373.608422,82.0400114 377.083251,79.4642769 L378.885013,80.4956432 L376.439764,86.5444189 L374.509303,92.2071025 C372.450146,92.8505892 370.77708,93.3653787 369.618804,93.6227734 C365.114396,94.6541397 359.837805,95.2976265 355.460307,95.2976265 C335.767825,95.2976265 322.769392,82.0417989 322.769392,61.8309518 C322.769392,41.7541643 335.512217,27.8530625 353.917727,27.8530625 C369.745714,27.8530625 380.045077,37.7645464 380.045077,52.9508342 C380.043289,54.2342328 379.914592,56.0377833 379.785894,58.3543357 L379.785894,58.3543357 L379.785894,58.3543357 Z"></path>
		<path d="M450.69635,92.7201045 L440.529259,92.7201045 L435.12397,92.9774991 C435.508274,90.403552 435.896154,88.4713042 436.024851,87.1861182 C436.284033,85.125173 436.410943,82.0382239 436.53964,77.9163336 C436.668338,73.7998057 436.798823,70.7110693 436.798823,68.5196392 L436.798823,57.7108489 C436.798823,52.4306824 436.53964,49.9854327 435.769244,47.7993651 C434.480484,43.9384445 430.62135,41.4914072 425.85776,41.4914072 C422.125537,41.4914072 418.522011,43.0375629 415.819367,45.73842 C412.601933,48.9558538 411.827961,51.5315884 411.827961,59.5108244 L411.827961,68.6501241 C411.827961,80.2310986 412.603721,87.4399379 414.403696,92.9739242 L408.741012,92.718317 L398.572133,92.718317 L393.168632,92.9739242 C393.683422,90.4017645 393.940817,88.4695167 394.069514,87.1843307 C394.455606,84.0920192 394.841698,75.3423865 394.841698,68.5196392 L395.10088,54.107323 C395.10088,47.8011525 394.586091,43.2949577 393.942604,40.722798 C393.300905,38.0201536 391.495567,36.7313926 388.408618,36.7313926 L387.379039,36.7313926 L389.952986,30.9417991 L395.10088,30.6826169 L405.398456,30.4270097 L411.447232,30.0391301 L411.189837,40.8514954 L416.466428,36.6044826 C423.029993,31.3261037 427.918706,29.1382486 434.612755,29.1382486 C441.5642,29.1382486 446.969489,31.5834983 450.444318,36.0896933 C453.275659,39.9506139 454.047843,43.423655 453.917358,52.5647422 L453.790448,68.6519116 C453.661751,80.3633708 454.562633,87.4417254 456.362608,92.9774991 L450.69635,92.7201045"></path>
		<path d="M509.763074,35.9592084 L508.091796,40.722798 C503.069024,40.3367059 501.270836,40.2080087 497.27943,40.2080087 L492.131535,40.2080087 L491.743657,52.0499528 L491.743657,66.5909664 C491.743657,73.1563189 491.872354,75.0867793 492.517627,77.6625139 C493.547206,81.9095265 496.76464,84.3547763 501.138563,84.3547763 C503.971693,84.3547763 506.161335,83.7095021 509.376982,82.0382239 L510.921349,82.9391054 L509.634377,87.0574208 L508.345616,92.4627097 C500.881169,94.5200799 497.147158,95.1653541 493.030629,95.1653541 C480.160894,95.1653541 474.623333,88.7286989 474.623333,73.6711084 L474.623333,67.7528175 L474.753818,55.2673866 C474.880727,48.4482143 474.365939,43.9402319 473.722452,41.3680723 C473.080753,38.6636403 471.27899,37.3784543 468.188466,37.3784543 L466.00061,37.3784543 L468.57277,30.9417991 L475.26682,30.8131017 C475.26682,26.6947864 475.136335,25.5347227 474.75203,19.7415542 L479.64253,18.0702761 L487.621766,14.4649627 L491.997477,12.0215004 L493.413147,13.4371713 C492.512266,19.485947 492.383569,21.1572251 492.124386,30.9417991 L501.006291,31.068709 L501.780263,31.068709 C506.027276,31.068709 507.056854,30.9417991 510.789078,30.1678274 L511.689958,31.4548011 L509.763074,35.9592084"></path>
	</g>
</svg>
